X: 17
T:Father Kelly's Reel No. 1
M:C|
L:1/8
R:Reel
K:G
GA[|:B2GB AGEG|DGGF G2AB|cBAB cBAG|EGAG FDGA|!
B2GB AGEG|DGGF GABc|d2Bd gdBd|1cAFA G2GA:|2cAFA GABc|!
|:d2Bd gdBd|d2Bd gdBd|e2cf agfe|defg agfe|!
d2Bd gdBd|d2Bd gdBd|c2Ac B2GB|1AGEF GABc:|2AGEF G2GA|]!
